X: 645
T: Hai tai
%%abc-version 2.0
%%abcx-abcm2ps-target-version 5.9.1 (29 Sep 2008)
%%abc-creator hum2abc beta
%%abcx-conversion-date 2013/10/02 07:52:30
%%abc-edited-by Helmut Schaffrath
%%humdrum-veritas 3889947134
%%humdrum-veritas-data 3498730239
%%continueall 1
%%barnumbers 0
L: 1/16
M: 2/4
K: G
d2 d2 e g e d [I:setbarnb 1]| 
A B A GA4 | 
G2 G2 A G F E | 
D E D A,D4 | 
G2 G2 A G F E | 
D2 d2 A2 B A | 
E2 D2 G G G A | 
E D C2D4 |]  



